X:356
T:Heilan Donal 
C:Joe Buchanan's Scottish Tome - Page 018.2
I:018 2
R:March
Z:Carl Allison
L:1/8
M:2/4
K:Bm
"Bm" FB  BA/B/ | "Bm" cB Bc/B/    | "A"   A>F EF  | "A"  AB       A2  |
"Bm" FB  BA/B/ | "Bm" cB B/c/d/e/ | "F#m" fd  ec  | "Bm" B2   B2          :|
"Bm" fd  de/f/ | "Bm" fd "E7" B2       | "A"   e>c  Ac/d/ | "A" ec "F#m" B/c/d/e/  |
"Bm" f>e Bd/e/    | "Bm" fd B/c/d/e/       | "Bm"  fd  ec  | "Bm" B2       B2  :|

